; HEADER_BLOCK_START
; generated by Creality_Print V6.1.2.2458 on 2025-06-09 at 16:18:22
; total layer number: 192
; filament_density: 1.24
; filament_diameter: 1.75
; max_z_height: 47.95
; HEADER_BLOCK_END

; MINX = 42.58
; MINY = 158.62
; MINZ = 0.00
; MAXX = 102.36
; MAXY = 196.74
; MAXZ = 48.00

; THUMBNAIL_BLOCK_START

;
; THUMBNAIL_BLOCK_END

; THUMBNAIL_BLOCK_START

;
; THUMBNAIL_BLOCK_END

; external perimeters extrusion width = 0.50mm
; perimeters extrusion width = 0.50mm
; infill extrusion width = 0.50mm
; solid infill extrusion width = 0.50mm
; top infill extrusion width = 0.42mm
; first layer extrusion width = 0.50mm

; EXECUTABLE_BLOCK_START
EXCLUDE_OBJECT_DEFINE NAME=3DBenchy.stl_id_0_copy_0 CENTER=72.467,177.681 POLYGON=[[94.3809,158.655],[94.6759,158.731],[94.9274,158.835],[95.1781,158.98],[95.4095,159.159],[95.6185,159.374],[95.793,159.614],[95.9425,159.899],[102.248,177.215],[102.335,177.588],[102.355,177.919],[102.32,178.264],[102.22,178.625],[102.083,178.919],[101.85,179.254],[101.624,179.482],[101.33,179.696],[76.2615,192.984],[74.8792,193.683],[73.7599,194.201],[72.6774,194.665],[71.6299,195.08],[70.6407,195.441],[69.4009,195.853],[68.3121,196.18],[67.67,196.357],[66.8821,196.511],[65.2441,196.665],[63.585,196.738],[62.0431,196.727],[61.3071,196.696],[60.4085,196.633],[58.8484,196.464],[57.2986,196.217],[56.4171,196.041],[55.5382,195.839],[54.0082,195.428],[53.1385,195.158],[52.2725,194.863],[50.7667,194.284],[49.3607,193.667],[48.5314,193.265],[47.7109,192.841],[47.1023,192.509],[46.1009,191.924],[45.1153,191.303],[44.339,190.782],[43.5738,190.237],[43.3881,190.087],[43.1423,189.833],[42.9288,189.533],[42.7364,189.139],[42.6332,188.788],[42.5799,188.367],[42.5939,187.999],[42.6483,187.695],[42.9399,186.584],[43.4185,185.019],[43.7244,184.137],[44.141,183.048],[44.4752,182.244],[44.9516,181.187],[45.357,180.36],[45.8924,179.346],[46.3454,178.55],[46.8191,177.766],[47.3156,176.996],[47.833,176.239],[48.7908,174.95],[49.3676,174.234],[49.965,173.533],[50.4759,172.966],[51.0946,172.315],[52.2175,171.222],[52.8918,170.616],[53.5655,170.043],[54.2657,169.482],[55.0338,168.902],[56.4613,167.912],[56.922,167.637],[57.6823,167.285],[58.929,166.748],[60.0635,166.301],[61.2947,165.859],[62.3764,165.507],[63.6905,165.124],[64.6479,164.874],[65.8537,164.594],[93.5521,158.667],[93.7968,158.629],[94.0845,158.621],[94.3809,158.655]]
M73 P0 R22
M106 S0
M106 P2 S0
;TYPE:Custom
M141 S35;set chamber_temperature
M140 S0
M104 S0 
START_PRINT EXTRUDER_TEMP=220 BED_TEMP=50
T0
M104 S220
M204 S2000
G1 Z3 F600
M83
G1 Y150 F12000
G1 X0 F12000
G1 Z0.2 F600
G1 X0 Y150 F6000
G1 X0 Y0 E15 F6000
G1 X150 Y0 E15 F6000
G92 E0
G1 Z1 F600
G90
G21
M83 ; use relative distances for extrusion
SET_PRESSURE_ADVANCE ADVANCE=0.04; Override pressure advance value
G1 E-1 F2400
M106 P2 S255
M106 S0
;LAYER_CHANGE
;Z:0.2
;HEIGHT:0.2
;BEFORE_LAYER_CHANGE
;0.2
G92 E0

;_SET_FAN_SPEED_CHANGING_LAYER
SET_VELOCITY_LIMIT ACCEL=10000 ACCEL_TO_DECEL=10000
SET_VELOCITY_LIMIT SQUARE_CORNER_VELOCITY=100
EXCLUDE_OBJECT_START NAME=3DBenchy.stl_id_0_copy_0
G1 Z.2 F30000
G1 X67.092 Y169.816
G1 E1 F2400
;TYPE:Brim
;WIDTH:0.5
G1 F6000
G1 X68.271 Y169.402 E.04653
G1 X90.912 Y162.684 E.87963
G1 X91.447 Y162.567 E.0204
G1 X91.694 Y162.542 E.00923
G1 X92.085 Y162.536 E.01457
G1 X92.431 Y162.569 E.01295
G1 X92.875 Y162.665 E.01691
G1 X93.316 Y162.826 E.0175
G1 X93.664 Y163.008 E.01462
G1 X94.048 Y163.275 E.01741
G1 X94.313 Y163.513 E.01327
G1 X94.628 Y163.872 E.01781
G1 X94.89 Y164.266 E.01763
G1 X95.056 Y164.59 E.01354
G1 X95.168 Y164.862 E.01095
G1 X98.542 Y174.147 E.36797
G1 X98.669 Y174.699 E.0211
G1 X98.709 Y175.294 E.02221
G1 X98.649 Y175.885 E.02211
G1 X98.518 Y176.367 E.01861
G1 X98.296 Y176.867 E.02038
G1 X97.999 Y177.318 E.0201
G1 X97.782 Y177.571 E.01243
G1 X97.545 Y177.796 E.01218
G1 X97.117 Y178.113 E.01985
G1 X96.626 Y178.372 E.02068
G1 X74.959 Y187.781 E.87978
G1 X73.88 Y188.19 E.04299
G1 X72.934 Y188.481 E.03687
G1 X71.94 Y188.721 E.03809
G1 X70.97 Y188.893 E.03667
G1 X70.096 Y188.998 E.03282
G1 X69.048 Y189.064 E.03909
G1 X68.301 Y189.07 E.02782
G1 X67.138 Y189.013 E.04338
G1 X66.303 Y188.919 E.0313
G1 X65.267 Y188.744 E.03912
G1 X64.402 Y188.546 E.03308
G1 X63.438 Y188.266 E.03736
G1 X62.672 Y187.997 E.03024
G1 X61.643 Y187.567 E.04153
G1 X60.796 Y187.149 E.0352
G1 X59.936 Y186.661 E.03684
G1 X58.927 Y185.998 E.04497
G1 X58.12 Y185.385 E.03774
G1 X57.616 Y184.932 E.02523
G1 X57.466 Y184.756 E.00862
G1 X57.272 Y184.483 E.01247
G1 X57.1 Y184.17 E.01331
G1 X57.006 Y183.951 E.00885
G1 X56.872 Y183.482 E.01819
G1 X56.814 Y182.972 E.0191
G1 X56.85 Y182.402 E.02127
G1 X56.938 Y181.928 E.01797
G1 X57.16 Y180.976 E.0364
G1 X57.484 Y179.906 E.04165
G1 X57.89 Y178.836 E.04261
G1 X58.121 Y178.309 E.02143
G1 X58.514 Y177.51 E.03317
G1 X59.142 Y176.42 E.04687
G1 X59.756 Y175.512 E.04082
G1 X60.373 Y174.713 E.0376
G1 X61.033 Y173.957 E.03739
G1 X61.74 Y173.24 E.03748
G1 X62.555 Y172.512 E.04071
G1 X63.313 Y171.916 E.03591
G1 X63.978 Y171.448 E.0303
G1 X64.402 Y171.175 E.01876
G1 X65.4 Y170.598 E.04294
G1 X66.094 Y170.249 E.02896
G1 X67.056 Y169.832 E.03903
G1 X67.237 Y170.252 F30000
G1 F6000
G1 X67.264 Y170.241 E.00107
G1 X68.415 Y169.836 E.04546
G1 X91.021 Y163.128 E.87827
G1 X91.527 Y163.018 E.01928
G1 X92.074 Y162.994 E.02039
G1 X92.369 Y163.023 E.01103
G1 X92.756 Y163.108 E.01478
G1 X93.122 Y163.242 E.01452
G1 X93.434 Y163.405 E.01308
G1 X93.757 Y163.629 E.01466
G1 X93.993 Y163.841 E.01181
G1 X94.269 Y164.158 E.01567
G1 X94.499 Y164.505 E.01548
G1 X94.645 Y164.792 E.01199
G1 X98.1 Y174.269 E.37571
G1 X98.213 Y174.756 E.01863
G1 X98.25 Y175.275 E.01938
G1 X98.199 Y175.79 E.01929
G1 X98.082 Y176.223 E.01671
G1 X97.887 Y176.657 E.0177
G1 X97.628 Y177.049 E.01752
G1 X97.455 Y177.25 E.00988
G1 X97.256 Y177.44 E.01022
G1 X96.863 Y177.73 E.0182
G1 X96.423 Y177.962 E.01854
G1 X74.79 Y187.356 E.87843
G1 X73.736 Y187.756 E.04199
G1 X72.817 Y188.038 E.03581
G1 X71.85 Y188.272 E.03705
G1 X70.907 Y188.44 E.03569
G1 X70.05 Y188.543 E.03214
G1 X69.028 Y188.607 E.03813
G1 X68.307 Y188.613 E.02687
G1 X67.171 Y188.556 E.04238
G1 X66.363 Y188.466 E.03027
G1 X65.353 Y188.295 E.03815
G1 X64.513 Y188.102 E.0321
G1 X63.582 Y187.832 E.03611
G1 X62.833 Y187.569 E.02956
G1 X61.829 Y187.149 E.04052
G1 X61.007 Y186.743 E.03416
G1 X60.178 Y186.273 E.03547
G1 X59.195 Y185.627 E.04383
G1 X58.416 Y185.036 E.03642
G1 X57.951 Y184.617 E.02331
G1 X57.654 Y184.228 E.01823
G1 X57.445 Y183.814 E.0173
G1 X57.32 Y183.381 E.01676
G1 X57.273 Y182.949 E.0162
G1 X57.304 Y182.467 E.018
G1 X57.385 Y182.024 E.01674
G1 X57.603 Y181.09 E.03573
G1 X57.919 Y180.049 E.04053
G1 X58.314 Y179.006 E.04155
G1 X58.537 Y178.499 E.0206
G1 X58.92 Y177.722 E.03229
G1 X59.528 Y176.667 E.04536
G1 X60.124 Y175.783 E.03968
G1 X60.724 Y175.007 E.03656
G1 X61.371 Y174.265 E.03667
G1 X62.058 Y173.569 E.03643
G1 X62.852 Y172.86 E.03964
G1 X63.591 Y172.28 E.03498
G1 X64.643 Y171.563 E.04741
G1 X65.613 Y171.002 E.04175
G1 X66.292 Y170.662 E.02827
G1 X67.201 Y170.268 E.0369
G1 X67.373 Y170.695 F30000
G1 F6000
G1 X67.725 Y170.553 E.01416
G1 X68.578 Y170.264 E.03353
G1 X91.176 Y163.559 E.87795
G1 X91.515 Y163.482 E.01296
G1 X91.881 Y163.449 E.01368
G1 X92.242 Y163.467 E.01347
G1 X92.578 Y163.532 E.01274
G1 X92.9 Y163.643 E.0127
G1 X93.227 Y163.813 E.01373
G1 X93.501 Y164.009 E.01254
G1 X93.755 Y164.252 E.01311
G1 X93.976 Y164.53 E.01319
G1 X94.158 Y164.833 E.01318
G1 X94.31 Y165.177 E.01401
G1 X97.63 Y174.3 E.36158
G1 X97.759 Y174.811 E.01964
G1 X97.792 Y175.192 E.01426
G1 X97.753 Y175.69 E.0186
G1 X97.656 Y176.059 E.0142
G1 X97.464 Y176.477 E.01715
G1 X97.221 Y176.823 E.01574
G1 X96.963 Y177.087 E.01375
G1 X96.603 Y177.355 E.01673
G1 X96.262 Y177.534 E.01434
G1 X74.631 Y186.927 E.87835
G1 X73.927 Y187.205 E.0282
G1 X73.077 Y187.488 E.03338
G1 X72.198 Y187.726 E.03391
G1 X71.313 Y187.911 E.03366
G1 X70.44 Y188.042 E.03289
G1 X69.578 Y188.123 E.03227
G1 X68.697 Y188.157 E.03281
G1 X67.766 Y188.139 E.03469
G1 X66.917 Y188.073 E.03171
G1 X66.023 Y187.953 E.0336
G1 X65.151 Y187.785 E.03309
G1 X64.23 Y187.552 E.03538
G1 X63.412 Y187.293 E.03197
G1 X62.518 Y186.952 E.03561
G1 X61.748 Y186.606 E.03147
G1 X60.891 Y186.16 E.03597
G1 X60.007 Y185.627 E.03845
G1 X59.179 Y185.05 E.03757
G1 X58.368 Y184.392 E.0389
G1 X58.166 Y184.166 E.01129
G1 X58.031 Y183.97 E.00888
G1 X57.847 Y183.585 E.01587
G1 X57.762 Y183.267 E.01227
G1 X57.729 Y182.959 E.01153
G1 X57.746 Y182.603 E.01327
G1 X57.939 Y181.627 E.03705
G1 X58.201 Y180.663 E.03723
G1 X58.528 Y179.705 E.0377
G1 X58.934 Y178.728 E.0394
G1 X59.35 Y177.885 E.03501
G1 X59.911 Y176.916 E.04172
G1 X60.496 Y176.048 E.03897
G1 X61.045 Y175.335 E.03353
G1 X61.671 Y174.614 E.03556
G1 X62.333 Y173.939 E.03521
G1 X63.099 Y173.249 E.0384
G1 X63.817 Y172.681 E.03411
G1 X64.53 Y172.179 E.03246
G1 X65.366 Y171.661 E.03665
G1 X66.137 Y171.246 E.03261
G1 X66.935 Y170.871 E.03284
G1 X67.336 Y170.71 E.01608
G1 X67.506 Y171.133 F30000
G1 F6000
G1 X67.899 Y170.975 E.01579
G1 X68.706 Y170.703 E.0317
G1 X91.31 Y163.996 E.87821
G1 X91.623 Y163.926 E.01192
G1 X91.922 Y163.904 E.01119
G1 X92.22 Y163.923 E.01112
G1 X92.49 Y163.981 E.01028
G1 X92.751 Y164.075 E.01035
G1 X93.016 Y164.219 E.01121
G1 X93.234 Y164.381 E.01011
G1 X93.44 Y164.583 E.01076
G1 X93.618 Y164.814 E.01087
G1 X93.766 Y165.069 E.01095
G1 X93.879 Y165.329 E.01058
G1 X97.203 Y174.463 E.36201
G1 X97.304 Y174.852 E.01499
G1 X97.337 Y175.155 E.01136
G1 X97.311 Y175.574 E.01563
G1 X97.24 Y175.868 E.01128
G1 X97.09 Y176.215 E.01409
G1 X96.902 Y176.496 E.01256
G1 X96.629 Y176.776 E.01457
G1 X96.331 Y176.987 E.01359
G1 X96.084 Y177.112 E.01032
G1 X74.447 Y186.509 E.87862
G1 X73.785 Y186.77 E.0265
G1 X72.96 Y187.046 E.0324
G1 X72.108 Y187.278 E.03289
G1 X71.249 Y187.459 E.03269
G1 X70.401 Y187.587 E.03195
G1 X69.563 Y187.666 E.03133
G1 X68.71 Y187.7 E.03182
G1 X67.804 Y187.683 E.03372
G1 X66.981 Y187.621 E.03075
G1 X66.113 Y187.505 E.03261
G1 X65.266 Y187.342 E.03212
G1 X64.371 Y187.117 E.03439
G1 X63.578 Y186.868 E.03096
G1 X62.709 Y186.537 E.03464
G1 X61.962 Y186.202 E.03048
G1 X61.13 Y185.771 E.03489
G1 X60.271 Y185.254 E.03734
G1 X59.469 Y184.696 E.03641
G1 X58.708 Y184.087 E.03629
G1 X58.547 Y183.914 E.00879
G1 X58.401 Y183.701 E.00961
G1 X58.289 Y183.467 E.00967
G1 X58.216 Y183.217 E.00969
G1 X58.186 Y182.977 E.009
G1 X58.193 Y182.701 E.0103
G1 X58.38 Y181.751 E.03607
G1 X58.632 Y180.814 E.03612
G1 X58.962 Y179.848 E.03803
G1 X59.358 Y178.901 E.03824
G1 X59.744 Y178.118 E.03251
G1 X60.309 Y177.14 E.04206
G1 X60.877 Y176.301 E.03775
G1 X61.409 Y175.611 E.03246
G1 X62.019 Y174.911 E.03457
G1 X62.662 Y174.256 E.03418
G1 X63.407 Y173.587 E.03732
G1 X64.103 Y173.037 E.03303
G1 X64.767 Y172.57 E.03023
G1 X65.611 Y172.048 E.03695
G1 X66.357 Y171.647 E.03155
G1 X67.132 Y171.284 E.0319
G1 X67.469 Y171.148 E.01351
G1 E-1 F2400
;WIPE_START
G1 F6000
G1 X67.899 Y170.975
G1 X68.706 Y170.703
G1 X69.362 Y170.508
;WIPE_END
G1 X72.665 Y172.42 Z.4 F30000
G1 X80.579 Y177.001 Z.4
G1 Z.2
G1 E1 F2400
;TYPE:Inner wall
;WIDTH:0.473624
G1 F6000
G1 X80.412 Y176.553 E.01675
;WIDTH:0.462494
G1 X80.008 Y175.426 E.04094
G1 X80.151 Y175.577 E.00712
G1 X80.682 Y175.856 E.02049
G2 X80.514 Y176.528 I11.768 J3.299 E.02369
;WIDTH:0.473624
G1 X80.573 Y176.961 E.01535
G1 E-1 F2400
;WIPE_START
G1 F6000
G1 X80.412 Y176.553
G1 X80.008 Y175.426
G1 X80.151 Y175.577
G1 X80.289 Y175.65
;WIPE_END
G1 X80.918 Y177.801 Z.4 F30000
G1 Z.2
G1 E1 F2400
;WIDTH:0.487891
G1 F6000
G1 X80.919 Y177.801 E.00001
G1 E-1 F2400
;WIPE_START
G1 F6000
G1 X80.918 Y177.801
;WIPE_END
G1 X84.53 Y176.567 Z.4 F30000
G1 X95.362 Y172.868 Z.4
G1 Z.2
G1 E1 F2400
;WIDTH:0.499999
G1 F6000
G1 X96.071 Y174.819 E.0773
G1 X96.133 Y175.394 E.02154
G1 X96.003 Y175.693 E.01216
G1 X95.733 Y175.956 E.01403
G1 X73.999 Y185.411 E.88281
G1 X72.615 Y185.911 E.05481
G3 X71.053 Y186.289 I-3.963 J-12.982 E.05988
G1 X69.492 Y186.482 E.05857
G1 X67.869 Y186.498 E.06047
G1 X66.311 Y186.335 E.05834
G1 X64.692 Y185.975 E.06174
G3 X63.177 Y185.447 I3.697 J-13.041 E.05983
G1 X61.726 Y184.758 E.05982
;WIDTH:0.459479
G1 X61.62 Y184.72 E.00381
;WIDTH:0.418958
G1 X61.514 Y184.683 E.00344
;WIDTH:0.378437
G1 X61.408 Y184.646 E.00307
;WIDTH:0.337916
G1 X61.303 Y184.609 E.0027
;WIDTH:0.310187
G1 X60.86 Y184.335 E.01133
;WIDTH:0.355516
G1 X60.794 Y184.262 E.00252
;WIDTH:0.400844
G1 X60.728 Y184.188 E.00289
;WIDTH:0.446172
G1 X60.662 Y184.115 E.00325
;WIDTH:0.4915
G1 X60.595 Y184.041 E.00362
;WIDTH:0.499999
G3 X59.462 Y183.14 I7.125 J-10.126 E.05397
G1 X59.388 Y182.978 E.00663
G1 X59.442 Y182.447 E.0199
G3 X59.838 Y180.86 I43.538 J10.012 E.06092
G1 X60.284 Y181.091 E.01871
G2 X61.041 Y181.046 I.221 J-2.709 E.02833
G2 X60.782 Y181.806 I3.617 J1.659 E.02993
G1 X60.521 Y182.88 E.04117
G1 X60.552 Y183.383 E.01878
G1 X60.745 Y183.891 E.02024
;WIDTH:0.4915
G1 X60.853 Y183.979 E.0051
;WIDTH:0.442206
G1 X60.962 Y184.067 E.00454
;WIDTH:0.392911
G1 X61.07 Y184.155 E.00398
;WIDTH:0.343617
G1 X61.178 Y184.242 E.00342
;WIDTH:0.337042
G1 X61.351 Y184.338 E.00472
;WIDTH:0.379762
G1 X61.523 Y184.433 E.0054
;WIDTH:0.422482
G1 X61.695 Y184.529 E.00609
;WIDTH:0.461241
G1 X61.791 Y184.552 E.00337
;WIDTH:0.499999
G1 X61.887 Y184.576 E.00368
G1 X62.376 Y184.483 E.01855
G1 X64.301 Y183.772 E.07639
G1 X64.8 Y183.462 E.0219
G1 X64.98 Y183.288 E.00933
G1 X65.193 Y182.896 E.01661
G2 X65.715 Y183.104 I.859 J-1.396 E.02105
G1 X66.138 Y183.075 E.01579
G1 X66.593 Y182.821 E.01943
G1 X66.835 Y182.508 E.01471
G1 X67.012 Y182.009 E.01974
G1 X67.047 Y181.53 E.01788
G2 X67.575 Y182.043 I2.031 J-1.563 E.02751
G1 X67.91 Y182.175 E.01341
G1 X68.402 Y182.217 E.01842
G1 X68.632 Y182.18 E.00865
G1 X69.152 Y181.924 E.02163
G1 X69.34 Y181.733 E.00997
G1 X69.539 Y181.343 E.01633
G2 X70.236 Y181.523 I.629 J-.992 E.02725
G1 X70.726 Y181.406 E.01877
G1 X70.949 Y181.218 E.01085
G1 X71.248 Y180.814 E.01871
G1 X71.33 Y180.53 E.01103
G1 X71.481 Y180.64 E.00697
G1 X71.886 Y180.789 E.01607
G1 X72.236 Y180.821 E.01311
G1 X72.568 Y180.761 E.01257
G1 X72.985 Y180.502 E.01826
G1 X73.249 Y180.198 E.01499
G1 X73.41 Y179.79 E.01634
G1 X73.379 Y179.264 E.01963
G1 X73.262 Y178.956 E.01229
G1 X72.923 Y178.507 E.02095
G1 X71.937 Y177.664 E.04832
G1 X72 Y177.423 E.00928
G1 X72.055 Y176.926 E.01863
G1 X72.462 Y177.215 E.01862
G1 X72.948 Y177.343 E.01872
G1 X73.236 Y177.352 E.01072
G1 X73.767 Y177.211 E.02046
G1 X74.107 Y177.008 E.01474
G1 X74.122 Y177.154 E.00544
G2 X75.131 Y179.241 I4.728 J-.998 E.08721
G1 X75.583 Y179.671 E.02324
G2 X76.445 Y180.152 I2.912 J-4.2 E.03681
G1 X77.123 Y180.298 E.02585
G1 X77.662 Y180.288 E.02006
G1 X78.303 Y180.17 E.0243
G1 X80.157 Y179.55 E.0728
G1 X80.711 Y179.146 E.02554
G1 X80.879 Y178.915 E.01066
G1 X81.014 Y178.541 E.01479
G1 X81.029 Y178.255 E.01067
G1 X80.918 Y177.801 E.01742
G1 X81.24 Y178.149 E.01764
G1 X81.724 Y178.447 E.02118
G1 X82.281 Y178.608 E.02161
G1 X82.876 Y178.616 E.02218
G1 X83.605 Y178.462 E.02772
G2 X84.566 Y178.012 I-1.066 J-3.526 E.03968
G1 X84.955 Y177.683 E.01895
G1 X85.235 Y177.321 E.01705
G1 X85.389 Y176.992 E.01356
G1 X85.651 Y177.165 E.01167
G1 X86.038 Y177.264 E.01488
G1 X86.581 Y177.194 E.0204
G1 X89.547 Y176.11 E.11764
G1 X90.38 Y175.827 E.03276
G1 X90.749 Y175.53 E.01763
G1 X90.874 Y175.325 E.00894
G1 X91.029 Y174.84 E.01895
G1 X91.124 Y174.891 E.004
G1 X91.618 Y175.073 E.01962
G1 X92.092 Y175.143 E.01781
G1 X92.671 Y175.104 E.02164
G2 X94.114 Y174.534 I-.888 J-4.361 E.05808
G2 X94.766 Y173.95 I-3.976 J-5.09 E.03264
G1 X95.113 Y173.446 E.0228
G1 X95.347 Y172.905 E.02193
G1 E-1 F2400
;WIPE_START
G1 F6000
G1 X96.055 Y174.776
;WIPE_END
G1 X93.096 Y172.365 Z.4 F30000
G1 X92.734 Y172.071 Z.4
G1 Z.2
G1 E1 F2400
G1 F6000
G1 X92.633 Y172.24 E.00734
G1 X92.475 Y172.346 E.00706
G3 X91.427 Y172.244 I7.121 J-78.71 E.03923
G1 X90.909 Y172.37 E.01985
G2 X90.376 Y172.892 I.867 J1.42 E.02803
G1 X90.215 Y173.378 E.01908
G1 X90.028 Y173.305 E.00748
G1 X89.561 Y173.306 E.01738
G1 X89.191 Y173.38 E.01406
G1 X88.751 Y173.59 E.01818
G1 X88.66 Y173.289 E.01171
G1 X87.7 Y170.701 E.10283
G1 X87.521 Y170.103 E.02322
G1 X87.418 Y169.895 E.00866
